X:6309
T:Stranger at the Gate
O:england
C:Benedict Koehler
R:reel
D:Deiseal: The Long, Long Note
M:C|
K:Edor
B2EF GBEG|FDAD BAGA|~B3d =cAFA|GEFD EDB,A,|
B,E~E2 GABG|ABde fde^c|dBAF DEFA|1 BFAF ~E3A:|2 BFAF ~E3d||
|:~e3f gfeg|fedf edBA|(3Bcd ef gfe^c|dBAF DEFA|
BE~E2 GABG|ABde fde^c|dBAF DEFA|1 BFAF ~E3d:|2 BFAF ~E3A||


